src/assets/img/brikks.svg

<?xml version="1.0" encoding="iso-8859-1"?>
<!-- Generator: Adobe Illustrator 26.0.3, SVG Export Plug-In . SVG Version: 6.00 Build 0)  -->
<svg version="1.1" id="Calque_1" xmlns="http://www.w3.org/2000/svg" xmlns:xlink="http://www.w3.org/1999/xlink" x="0px" y="0px"
	 width="741.031px" height="322.567px" viewBox="0 0 741.031 322.567" enable-background="new 0 0 741.031 322.567"
	 xml:space="preserve">
<g>
	<path fill="#211F2D" d="M95.612,180.547l-20.64-19.957c-1.285-1.242-0.405-3.416,1.381-3.416h12.455
		c0.525,0,1.028,0.208,1.401,0.578l15.123,15.027c1.254,1.246,3.388,0.358,3.388-1.41v-55.27c0-1.097,0.89-1.987,1.987-1.987H90.919
		c-13.945,0-25.354,9.789-25.354,21.752v58.218c0,6.414,3.298,12.185,8.489,16.175l21.726-27.038
		C96.423,182.419,96.35,181.26,95.612,180.547z M73.008,142.301v-2.271c0-2.284,1.852-4.137,4.136-4.137h9.163
		c2.285,0,4.136,1.852,4.136,4.137v2.271c0,2.285-1.852,4.137-4.136,4.137h-9.163C74.86,146.438,73.008,144.586,73.008,142.301z"/>
	<path fill="#211F2D" d="M108.719,213.848v-19.775c0-0.527-0.209-1.032-0.582-1.405c-0.843-0.843-2.234-0.759-2.97,0.18
		l-17.413,22.226c-0.162,0.207-0.366,0.368-0.589,0.494c1.229,0.159,2.475,0.267,3.753,0.267h19.788
		C109.609,215.835,108.719,214.945,108.719,213.848z"/>
	<path fill="#211F2D" d="M147.603,192.847c-0.735-0.939-2.126-1.023-2.969-0.18c-0.373,0.373-0.582,0.878-0.582,1.405v19.775
		c0,1.097-0.89,1.987-1.987,1.987h17.354c1.984,0,3.908-0.219,5.764-0.593c-0.056-0.056-0.117-0.106-0.166-0.169L147.603,192.847z"
		/>
	<path fill="#211F2D" d="M184.773,194.082v-58.218c0-11.964-11.41-21.752-25.354-21.752h-17.354c1.098,0,1.987,0.89,1.987,1.987
		v55.27c0,1.767,2.134,2.655,3.388,1.41l15.123-15.027c0.372-0.37,0.876-0.578,1.401-0.578h12.455c1.787,0,2.666,2.174,1.381,3.416
		l-20.64,19.957c-0.738,0.714-0.811,1.873-0.168,2.673l20.754,25.828C182.084,205.14,184.773,199.872,184.773,194.082z"/>
	<path fill="#211F2D" d="M130.501,213.848v-97.748c0-1.097,0.89-1.987,1.987-1.987h-12.205c1.098,0,1.987,0.89,1.987,1.987v97.748
		c0,1.097-0.89,1.987-1.987,1.987h12.205C131.391,215.835,130.501,214.945,130.501,213.848z"/>
</g>
<path fill="#FDC945" d="M559.086,86.371v78.562c0,2.512,3.034,3.774,4.816,2.004l21.496-21.36c0.529-0.526,1.245-0.821,1.991-0.821
	h17.704c2.54,0,3.789,3.09,1.964,4.855l-29.338,28.367c-1.049,1.015-1.153,2.662-0.238,3.8l33.56,41.765
	c1.485,1.849,0.169,4.594-2.202,4.594h-17.729c-0.868,0-1.688-0.399-2.224-1.083l-24.751-31.592
	c-1.045-1.334-3.022-1.454-4.221-0.255l0,0c-0.53,0.53-0.827,1.248-0.827,1.997v28.108c0,1.56-1.265,2.825-2.825,2.825h-13.612
	c-1.56,0-2.825-1.265-2.825-2.825V86.371c0-1.56,1.265-2.825,2.825-2.825h13.612C557.821,83.546,559.086,84.811,559.086,86.371z"/>
<path fill="#FDC945" d="M527.411,86.371v138.942c0,1.56-1.265,2.825-2.825,2.825h-13.612c-1.56,0-2.825-1.265-2.825-2.825v-28.108
	c0-0.749-0.298-1.468-0.827-1.997h0c-1.199-1.199-3.176-1.079-4.221,0.255l-24.751,31.592c-0.535,0.683-1.355,1.083-2.224,1.083
	h-17.729c-2.371,0-3.687-2.745-2.202-4.594l33.56-41.765c0.914-1.138,0.811-2.785-0.238-3.8l-29.338-28.367
	c-1.826-1.765-0.576-4.855,1.963-4.855h17.704c0.746,0,1.462,0.295,1.991,0.821l21.496,21.36c1.782,1.771,4.816,0.509,4.816-2.004
	V86.371c0-1.56,1.265-2.825,2.825-2.825h13.612C526.146,83.546,527.411,84.811,527.411,86.371z"/>
<path fill="#FDC945" d="M662.777,162.811l-8.307,4.422c-1.634,0.87-3.693,0.426-4.755-1.09c-2.005-2.863-4.348-4.295-7.027-4.295
	c-1.64,0-3.04,0.54-4.202,1.623c-1.164,1.083-1.744,2.468-1.744,4.156c0,2.958,3.434,5.888,10.307,8.792
	c9.46,4.064,15.829,7.811,19.107,11.243c3.276,3.432,4.915,8.051,4.915,13.858c0,7.444-2.75,13.674-8.245,18.688
	c-5.339,4.753-11.788,7.127-19.345,7.127c-11.683,0-20.29-5.14-25.82-15.423c-1.008-1.874-0.182-4.224,1.748-5.119l8.729-4.046
	c1.703-0.79,3.74-0.184,4.733,1.41c1.31,2.102,2.363,3.512,3.158,4.231c2.166,2.009,4.757,3.013,7.77,3.013
	c6.025,0,9.038-2.748,9.038-8.245c0-3.13-2.266-6.053-6.798-8.773c-0.116-0.07-0.242-0.138-0.363-0.199
	c-1.737-0.865-3.472-1.706-5.207-2.524c-1.798-0.845-3.622-1.717-5.47-2.616c-5.18-2.537-8.827-5.074-10.941-7.611
	c-2.696-3.223-4.043-7.373-4.043-12.447c0-6.712,2.299-12.262,6.898-16.649c4.703-4.388,10.411-6.58,17.125-6.58
	c8.717,0,15.46,3.968,20.231,11.903C665.352,159.461,664.636,161.821,662.777,162.811z"/>
<path fill="#FDC945" d="M277.409,85.949v61.835c0,2.286,2.647,3.584,4.429,2.153c6.567-5.273,13.812-7.908,21.735-7.908
	c11.228,0,20.577,4.19,28.045,12.569c7.466,8.323,11.201,18.698,11.201,31.123c0,12.825-3.762,23.428-11.286,31.807
	c-7.468,8.323-16.903,12.483-28.301,12.483c-7.829,0-14.982-2.447-21.456-7.342c-1.794-1.357-4.366-0.048-4.366,2.201v0
	c0,1.517-1.23,2.747-2.747,2.747h-16.491V85.949c0-1.517,1.23-2.747,2.747-2.747h13.745
	C276.179,83.202,277.409,84.432,277.409,85.949z M323.153,186.575c0-7.979-2.167-14.477-6.498-19.495
	c-4.39-5.13-9.889-7.695-16.502-7.695c-7.067,0-12.825,2.48-17.272,7.439c-4.39,4.903-6.584,11.286-6.584,19.153
	c0,8.096,2.167,14.565,6.498,19.409c4.331,4.959,10.033,7.439,17.101,7.439c6.669,0,12.198-2.48,16.588-7.439
	C320.93,200.37,323.153,194.099,323.153,186.575z"/>
<path fill="#FDC945" d="M358.474,146.731h14.802c1.225,0,2.218,0.993,2.218,2.218l0,0c0,1.911,2.259,2.907,3.693,1.645
	c2.066-1.818,3.97-3.163,5.712-4.034c2.792-1.424,6.098-2.138,9.918-2.138c4.506,0,9.194,1.306,14.063,3.915
	c1.042,0.559,1.425,1.875,0.897,2.932l-6.755,13.509c-0.569,1.138-1.99,1.569-3.084,0.919c-2.962-1.757-5.865-2.637-8.711-2.637
	c-10.49,0-15.733,7.925-15.733,23.77v43.179h-19.238v-81.061C356.256,147.724,357.249,146.731,358.474,146.731z"/>
<path fill="#211F2D" d="M421.359,137.01h58.317c0.864,0,1.565-0.701,1.565-1.565v-11.858c0-0.864-0.701-1.565-1.565-1.565h-58.317
	c-0.864,0-1.565,0.701-1.565,1.565v11.858C419.794,136.309,420.494,137.01,421.359,137.01z"/>
<path fill="#FDC945" d="M439.048,149.891c0-1.991-1.614-3.605-3.605-3.605h-12.02c-1.991,0-3.605,1.614-3.605,3.605v3.132
	c-0.003,0.081-0.024,0.157-0.024,0.239v76.748c0,0,0,0,0,0h19.238c0,0,0.001,0,0.001,0v-76.541c0.002-0.055,0.016-0.106,0.016-0.162
	V149.891z"/>
<g>
</g>
<g>
</g>
<g>
</g>
<g>
</g>
<g>
</g>
<g>
</g>
</svg>

<?xml version="1.0" encoding="UTF-8" standalone="no"?>
<!DOCTYPE svg PUBLIC "-//W3C//DTD SVG 1.1//EN" "http://www.w3.org/Graphics/SVG/1.1/DTD/svg11.dtd">
<svg width="100%" height="100%" viewBox="0 0 606 147" version="1.1" xmlns="http://www.w3.org/2000/svg" xmlns:xlink="http://www.w3.org/1999/xlink" xml:space="preserve" xmlns:serif="http://www.serif.com/" style="fill-rule:evenodd;clip-rule:evenodd;stroke-linejoin:round;stroke-miterlimit:2;">
    <g transform="matrix(1,0,0,1,-65.565,-83.202)">
        <path d="M95.612,180.547L74.972,160.59C73.687,159.348 74.567,157.174 76.353,157.174L88.808,157.174C89.333,157.174 89.836,157.382 90.209,157.752L105.332,172.779C106.586,174.025 108.72,173.137 108.72,171.369L108.72,116.099C108.72,115.002 109.61,114.112 110.707,114.112L90.919,114.112C76.974,114.112 65.565,123.901 65.565,135.864L65.565,194.082C65.565,200.496 68.863,206.267 74.054,210.257L95.78,183.219C96.423,182.419 96.35,181.26 95.612,180.547ZM73.008,142.301L73.008,140.03C73.008,137.746 74.86,135.893 77.144,135.893L86.307,135.893C88.592,135.893 90.443,137.745 90.443,140.03L90.443,142.301C90.443,144.586 88.591,146.438 86.307,146.438L77.144,146.438C74.86,146.438 73.008,144.586 73.008,142.301Z" style="fill:rgb(33,31,45);fill-rule:nonzero;"/>
        <path d="M108.719,213.848L108.719,194.073C108.719,193.546 108.51,193.041 108.137,192.668C107.294,191.825 105.903,191.909 105.167,192.848L87.754,215.074C87.592,215.281 87.388,215.442 87.165,215.568C88.394,215.727 89.64,215.835 90.918,215.835L110.706,215.835C109.609,215.835 108.719,214.945 108.719,213.848Z" style="fill:rgb(33,31,45);fill-rule:nonzero;"/>
        <path d="M147.603,192.847C146.868,191.908 145.477,191.824 144.634,192.667C144.261,193.04 144.052,193.545 144.052,194.072L144.052,213.847C144.052,214.944 143.162,215.834 142.065,215.834L159.419,215.834C161.403,215.834 163.327,215.615 165.183,215.241C165.127,215.185 165.066,215.135 165.017,215.072L147.603,192.847Z" style="fill:rgb(33,31,45);fill-rule:nonzero;"/>
        <path d="M184.773,194.082L184.773,135.864C184.773,123.9 173.363,114.112 159.419,114.112L142.065,114.112C143.163,114.112 144.052,115.002 144.052,116.099L144.052,171.369C144.052,173.136 146.186,174.024 147.44,172.779L162.563,157.752C162.935,157.382 163.439,157.174 163.964,157.174L176.419,157.174C178.206,157.174 179.085,159.348 177.8,160.59L157.16,180.547C156.422,181.261 156.349,182.42 156.992,183.22L177.746,209.048C182.084,205.14 184.773,199.872 184.773,194.082Z" style="fill:rgb(33,31,45);fill-rule:nonzero;"/>
        <path d="M130.501,213.848L130.501,116.1C130.501,115.003 131.391,114.113 132.488,114.113L120.283,114.113C121.381,114.113 122.27,115.003 122.27,116.1L122.27,213.848C122.27,214.945 121.38,215.835 120.283,215.835L132.488,215.835C131.391,215.835 130.501,214.945 130.501,213.848Z" style="fill:rgb(33,31,45);fill-rule:nonzero;"/>
        <path d="M559.086,86.371L559.086,164.933C559.086,167.445 562.12,168.707 563.902,166.937L585.398,145.577C585.927,145.051 586.643,144.756 587.389,144.756L605.093,144.756C607.633,144.756 608.882,147.846 607.057,149.611L577.719,177.978C576.67,178.993 576.566,180.64 577.481,181.778L611.041,223.543C612.526,225.392 611.21,228.137 608.839,228.137L591.11,228.137C590.242,228.137 589.422,227.738 588.886,227.054L564.135,195.462C563.09,194.128 561.113,194.008 559.914,195.207C559.384,195.737 559.087,196.455 559.087,197.204L559.087,225.312C559.087,226.872 557.822,228.137 556.262,228.137L542.65,228.137C541.09,228.137 539.825,226.872 539.825,225.312L539.825,86.371C539.825,84.811 541.09,83.546 542.65,83.546L556.262,83.546C557.821,83.546 559.086,84.811 559.086,86.371Z" style="fill:rgb(253,201,69);fill-rule:nonzero;"/>
        <path d="M527.411,86.371L527.411,225.313C527.411,226.873 526.146,228.138 524.586,228.138L510.974,228.138C509.414,228.138 508.149,226.873 508.149,225.313L508.149,197.205C508.149,196.456 507.851,195.737 507.322,195.208C506.123,194.009 504.146,194.129 503.101,195.463L478.35,227.055C477.815,227.738 476.995,228.138 476.126,228.138L458.397,228.138C456.026,228.138 454.71,225.393 456.195,223.544L489.755,181.779C490.669,180.641 490.566,178.994 489.517,177.979L460.179,149.612C458.353,147.847 459.603,144.757 462.142,144.757L479.846,144.757C480.592,144.757 481.308,145.052 481.837,145.578L503.333,166.938C505.115,168.709 508.149,167.447 508.149,164.934L508.149,86.371C508.149,84.811 509.414,83.546 510.974,83.546L524.586,83.546C526.146,83.546 527.411,84.811 527.411,86.371Z" style="fill:rgb(253,201,69);fill-rule:nonzero;"/>
        <path d="M662.777,162.811L654.47,167.233C652.836,168.103 650.777,167.659 649.715,166.143C647.71,163.28 645.367,161.848 642.688,161.848C641.048,161.848 639.648,162.388 638.486,163.471C637.322,164.554 636.742,165.939 636.742,167.627C636.742,170.585 640.176,173.515 647.049,176.419C656.509,180.483 662.878,184.23 666.156,187.662C669.432,191.094 671.071,195.713 671.071,201.52C671.071,208.964 668.321,215.194 662.826,220.208C657.487,224.961 651.038,227.335 643.481,227.335C631.798,227.335 623.191,222.195 617.661,211.912C616.653,210.038 617.479,207.688 619.409,206.793L628.138,202.747C629.841,201.957 631.878,202.563 632.871,204.157C634.181,206.259 635.234,207.669 636.029,208.388C638.195,210.397 640.786,211.401 643.799,211.401C649.824,211.401 652.837,208.653 652.837,203.156C652.837,200.026 650.571,197.103 646.039,194.383C645.923,194.313 645.797,194.245 645.676,194.184C643.939,193.319 642.204,192.478 640.469,191.66C638.671,190.815 636.847,189.943 634.999,189.044C629.819,186.507 626.172,183.97 624.058,181.433C621.362,178.21 620.015,174.06 620.015,168.986C620.015,162.274 622.314,156.724 626.913,152.337C631.616,147.949 637.324,145.757 644.038,145.757C652.755,145.757 659.498,149.725 664.269,157.66C665.352,159.461 664.636,161.821 662.777,162.811Z" style="fill:rgb(253,201,69);fill-rule:nonzero;"/>
        <path d="M277.409,85.949L277.409,147.784C277.409,150.07 280.056,151.368 281.838,149.937C288.405,144.664 295.65,142.029 303.573,142.029C314.801,142.029 324.15,146.219 331.618,154.598C339.084,162.921 342.819,173.296 342.819,185.721C342.819,198.546 339.057,209.149 331.533,217.528C324.065,225.851 314.63,230.011 303.232,230.011C295.403,230.011 288.25,227.564 281.776,222.669C279.982,221.312 277.41,222.621 277.41,224.87C277.41,226.387 276.18,227.617 274.663,227.617L258.172,227.617L258.172,85.949C258.172,84.432 259.402,83.202 260.919,83.202L274.664,83.202C276.179,83.202 277.409,84.432 277.409,85.949ZM323.153,186.575C323.153,178.596 320.986,172.098 316.655,167.08C312.265,161.95 306.766,159.385 300.153,159.385C293.086,159.385 287.328,161.865 282.881,166.824C278.491,171.727 276.297,178.11 276.297,185.977C276.297,194.073 278.464,200.542 282.795,205.386C287.126,210.345 292.828,212.825 299.896,212.825C306.565,212.825 312.094,210.345 316.484,205.386C320.93,200.37 323.153,194.099 323.153,186.575Z" style="fill:rgb(253,201,69);fill-rule:nonzero;"/>
        <path d="M358.474,146.731L373.276,146.731C374.501,146.731 375.494,147.724 375.494,148.949C375.494,150.86 377.753,151.856 379.187,150.594C381.253,148.776 383.157,147.431 384.899,146.56C387.691,145.136 390.997,144.422 394.817,144.422C399.323,144.422 404.011,145.728 408.88,148.337C409.922,148.896 410.305,150.212 409.777,151.269L403.022,164.778C402.453,165.916 401.032,166.347 399.938,165.697C396.976,163.94 394.073,163.06 391.227,163.06C380.737,163.06 375.494,170.985 375.494,186.83L375.494,230.009L356.256,230.009L356.256,148.948C356.256,147.724 357.249,146.731 358.474,146.731Z" style="fill:rgb(253,201,69);fill-rule:nonzero;"/>
        <path d="M421.359,137.01L479.676,137.01C480.54,137.01 481.241,136.309 481.241,135.445L481.241,123.587C481.241,122.723 480.54,122.022 479.676,122.022L421.359,122.022C420.495,122.022 419.794,122.723 419.794,123.587L419.794,135.445C419.794,136.309 420.494,137.01 421.359,137.01Z" style="fill:rgb(33,31,45);fill-rule:nonzero;"/>
        <path d="M439.048,149.891C439.048,147.9 437.434,146.286 435.443,146.286L423.423,146.286C421.432,146.286 419.818,147.9 419.818,149.891L419.818,153.023C419.815,153.104 419.794,153.18 419.794,153.262L419.794,230.01L439.033,230.01L439.033,153.469C439.035,153.414 439.049,153.363 439.049,153.307L439.049,149.891L439.048,149.891Z" style="fill:rgb(253,201,69);fill-rule:nonzero;"/>
    </g>
</svg>
